Papirus/32x32/apps/half-life-deathmatch.svg

<svg width="32" height="32" version="1.1" xmlns="http://www.w3.org/2000/svg">
 <g>
  <path d="m16 2c-7.716 0-14 6.2843-14 14 0 7.716 6.2843 14 14 14 7.716 0 14-6.284 14-14 0-7.7157-6.284-14-14-14z" style="fill:#522f17"/>
  <path d="m16 7a10 10 0 0 0-10 10 10 10 0 0 0 10 10 10 10 0 0 0 10-10 10 10 0 0 0-10-10zm-4.0112 2.9443h3.8318l4.3994 11.189 1.9348-0.62988 0.64453 2.1667-4.1724 1.2048-2.8064-7.1143-4.115 6.4844h-2.5806l5.7471-9.281-0.64453-1.8335h-2.2388v-2.1863z" style="opacity:.2"/>
  <path d="m16 6a10 10 0 0 0-10 10 10 10 0 0 0 10 10 10 10 0 0 0 10-10 10 10 0 0 0-10-10zm-4.0112 2.9443h3.8318l4.3994 11.189 1.9348-0.62988 0.64453 2.1667-4.1724 1.2048-2.8064-7.1143-4.115 6.4844h-2.5806l5.7471-9.281-0.64453-1.8335h-2.2388v-2.1863z" style="fill:#a38976"/>
  <path d="m16 2c-7.716 0-14 6.2843-14 14 0 0.169 0.0194 0.333 0.0254 0.5 0.2664-7.4835 6.4273-13.5 13.975-13.5 7.547 0 13.708 6.0164 13.975 13.5 6e-3 -0.167 0.025-0.331 0.025-0.5 0-7.7157-6.284-14-14-14z" style="fill:#ffffff;opacity:.1"/>
  <path d="m2.0254 16.5c-6e-3 0.167-0.0254 0.331-0.0254 0.5 0 7.716 6.2843 14 14 14 7.716 0 14-6.284 14-14 0-0.169-0.019-0.333-0.025-0.5-0.267 7.484-6.428 13.5-13.975 13.5-7.5471 0-13.708-6.016-13.975-13.5z" style="opacity:.2"/>
 </g>
</svg>

<svg xmlns="http://www.w3.org/2000/svg" width="32" height="32" version="1.1">
 <circle style="opacity:0.2" cx="16" cy="17" r="14"/>
 <circle style="fill:#522f17" cx="16" cy="16" r="14"/>
 <path style="fill:#ffffff;opacity:0.1" d="M 16 2 A 14 14 0 0 0 2 16 A 14 14 0 0 0 2.0352 16.5 A 14 14 0 0 1 16 3 A 14 14 0 0 1 29.98 16.279 A 14 14 0 0 0 30 16 A 14 14 0 0 0 16 2 z"/>
 <path style="opacity:0.1" d="M 16,6 A 11,11 0 0 0 5,17 11,11 0 0 0 16,28 11,11 0 0 0 27,17 11,11 0 0 0 16,6 Z M 11.988,9.9434 H 15.82 L 20.221,21.133 22.154,20.504 22.799,22.67 18.627,23.875 15.82,16.762 11.705,23.244 H 9.125 L 14.871,13.965 14.227,12.131 H 11.988 Z"/>
 <path style="fill:#a38976" d="M 16 5 A 11 11 0 0 0 5 16 A 11 11 0 0 0 16 27 A 11 11 0 0 0 27 16 A 11 11 0 0 0 16 5 z M 11.988 8.9434 L 15.82 8.9434 L 20.221 20.133 L 22.154 19.504 L 22.799 21.67 L 18.627 22.875 L 15.82 15.762 L 11.705 22.244 L 9.125 22.244 L 14.871 12.965 L 14.227 11.131 L 11.988 11.131 L 11.988 8.9434 z"/>
</svg>
